src/images/logo.svg

<svg width="120" height="60" viewBox="0 0 120 60" fill="none" xmlns="http://www.w3.org/2000/svg">
<mask id="mask0_4_232" style="mask-type:alpha" maskUnits="userSpaceOnUse" x="0" y="0" width="120" height="60">
<rect width="120" height="60" rx="4" fill="#D9D9D9"/>
</mask>
<g mask="url(#mask0_4_232)">
<mask id="mask1_4_232" style="mask-type:alpha" maskUnits="userSpaceOnUse" x="61" y="30" width="24" height="23">
<rect x="61.5" y="30.5" width="23" height="22" rx="11" fill="#D9D9D9"/>
</mask>
<g mask="url(#mask1_4_232)">
<rect x="60.5417" y="29.5833" width="24.9167" height="23.8333" fill="url(#paint0_linear_4_232)"/>
</g>
<g filter="url(#filter0_d_4_232)">
<path d="M15.6366 29.168C14.1806 29.168 12.7806 28.9347 11.4366 28.468C10.1113 27.9827 9.08463 27.3667 8.35663 26.62L9.16863 25.024C9.85929 25.696 10.7833 26.2653 11.9406 26.732C13.1166 27.18 14.3486 27.404 15.6366 27.404C16.8686 27.404 17.8673 27.2547 18.6326 26.956C19.4166 26.6387 19.986 26.2187 20.3406 25.696C20.714 25.1733 20.9006 24.5947 20.9006 23.96C20.9006 23.1947 20.6766 22.5787 20.2286 22.112C19.7993 21.6453 19.23 21.2813 18.5206 21.02C17.8113 20.74 17.0273 20.4973 16.1686 20.292C15.31 20.0867 14.4513 19.872 13.5926 19.648C12.734 19.4053 11.9406 19.088 11.2126 18.696C10.5033 18.304 9.92463 17.7907 9.47663 17.156C9.04729 16.5027 8.83263 15.6533 8.83263 14.608C8.83263 13.6373 9.08463 12.7507 9.58863 11.948C10.1113 11.1267 10.9046 10.4733 11.9686 9.988C13.0326 9.484 14.3953 9.232 16.0566 9.232C17.158 9.232 18.25 9.39067 19.3326 9.708C20.4153 10.0067 21.3486 10.4267 22.1326 10.968L21.4326 12.62C20.5926 12.06 19.6966 11.6493 18.7446 11.388C17.8113 11.1267 16.906 10.996 16.0286 10.996C14.8526 10.996 13.882 11.1547 13.1166 11.472C12.3513 11.7893 11.782 12.2187 11.4086 12.76C11.054 13.2827 10.8766 13.88 10.8766 14.552C10.8766 15.3173 11.0913 15.9333 11.5206 16.4C11.9686 16.8667 12.5473 17.2307 13.2566 17.492C13.9846 17.7533 14.778 17.9867 15.6366 18.192C16.4953 18.3973 17.3446 18.6213 18.1846 18.864C19.0433 19.1067 19.8273 19.424 20.5366 19.816C21.2646 20.1893 21.8433 20.6933 22.2726 21.328C22.7206 21.9627 22.9446 22.7933 22.9446 23.82C22.9446 24.772 22.6833 25.6587 22.1606 26.48C21.638 27.2827 20.8353 27.936 19.7526 28.44C18.6886 28.9253 17.3166 29.168 15.6366 29.168ZM30.2592 29V9.4H37.5952C39.2565 9.4 40.6845 9.67067 41.8792 10.212C43.0739 10.7347 43.9885 11.5 44.6232 12.508C45.2765 13.4973 45.6032 14.7013 45.6032 16.12C45.6032 17.5013 45.2765 18.696 44.6232 19.704C43.9885 20.6933 43.0739 21.4587 41.8792 22C40.6845 22.5413 39.2565 22.812 37.5952 22.812H31.4072L32.3312 21.832V29H30.2592ZM32.3312 22L31.4072 20.992H37.5392C39.4992 20.992 40.9832 20.572 41.9912 19.732C43.0179 18.8733 43.5312 17.6693 43.5312 16.12C43.5312 14.552 43.0179 13.3387 41.9912 12.48C40.9832 11.6213 39.4992 11.192 37.5392 11.192H31.4072L32.3312 10.212V22ZM48.763 29L57.723 9.4H59.767L68.727 29H66.543L58.311 10.604H59.151L50.919 29H48.763ZM52.291 23.764L52.907 22.084H64.303L64.919 23.764H52.291ZM83.0079 29.168C81.5332 29.168 80.1706 28.9253 78.9199 28.44C77.6692 27.936 76.5866 27.236 75.6719 26.34C74.7572 25.444 74.0386 24.3893 73.5159 23.176C73.0119 21.9627 72.7599 20.6373 72.7599 19.2C72.7599 17.7627 73.0119 16.4373 73.5159 15.224C74.0386 14.0107 74.7572 12.956 75.6719 12.06C76.6052 11.164 77.6972 10.4733 78.9479 9.988C80.1986 9.484 81.5612 9.232 83.0359 9.232C84.4546 9.232 85.7892 9.47467 87.0399 9.96C88.2906 10.4267 89.3452 11.136 90.2039 12.088L88.8879 13.404C88.0852 12.5827 87.1986 11.9947 86.2279 11.64C85.2572 11.2667 84.2119 11.08 83.0919 11.08C81.9159 11.08 80.8239 11.2853 79.8159 11.696C78.8079 12.088 77.9306 12.6573 77.1839 13.404C76.4372 14.132 75.8492 14.9907 75.4199 15.98C75.0092 16.9507 74.8039 18.024 74.8039 19.2C74.8039 20.376 75.0092 21.4587 75.4199 22.448C75.8492 23.4187 76.4372 24.2773 77.1839 25.024C77.9306 25.752 78.8079 26.3213 79.8159 26.732C80.8239 27.124 81.9159 27.32 83.0919 27.32C84.2119 27.32 85.2572 27.1333 86.2279 26.76C87.1986 26.3867 88.0852 25.7893 88.8879 24.968L90.2039 26.284C89.3452 27.236 88.2906 27.9547 87.0399 28.44C85.7892 28.9253 84.4452 29.168 83.0079 29.168ZM99.2689 18.164H109.629V19.928H99.2689V18.164ZM99.4929 27.208H111.281V29H97.4209V9.4H110.861V11.192H99.4929V27.208ZM17.2584 53.192C15.5944 53.192 13.9944 52.9253 12.4584 52.392C10.9437 51.8373 9.77038 51.1333 8.93838 50.28L9.86638 48.456C10.6557 49.224 11.7117 49.8747 13.0344 50.408C14.3784 50.92 15.7864 51.176 17.2584 51.176C18.6664 51.176 19.8077 51.0053 20.6824 50.664C21.5784 50.3013 22.229 49.8213 22.6344 49.224C23.061 48.6267 23.2744 47.9653 23.2744 47.24C23.2744 46.3653 23.0184 45.6613 22.5064 45.128C22.0157 44.5947 21.365 44.1787 20.5544 43.88C19.7437 43.56 18.8477 43.2827 17.8664 43.048C16.885 42.8133 15.9037 42.568 14.9224 42.312C13.941 42.0347 13.0344 41.672 12.2024 41.224C11.3917 40.776 10.7304 40.1893 10.2184 39.464C9.72771 38.7173 9.48238 37.7467 9.48238 36.552C9.48238 35.4427 9.77038 34.4293 10.3464 33.512C10.9437 32.5733 11.8504 31.8267 13.0664 31.272C14.2824 30.696 15.8397 30.408 17.7384 30.408C18.997 30.408 20.245 30.5893 21.4824 30.952C22.7197 31.2933 23.7864 31.7733 24.6824 32.392L23.8824 34.28C22.9224 33.64 21.8984 33.1707 20.8104 32.872C19.7437 32.5733 18.709 32.424 17.7064 32.424C16.3624 32.424 15.253 32.6053 14.3784 32.968C13.5037 33.3307 12.853 33.8213 12.4264 34.44C12.021 35.0373 11.8184 35.72 11.8184 36.488C11.8184 37.3627 12.0637 38.0667 12.5544 38.6C13.0664 39.1333 13.7277 39.5493 14.5384 39.848C15.3704 40.1467 16.277 40.4133 17.2584 40.648C18.2397 40.8827 19.2104 41.1387 20.1704 41.416C21.1517 41.6933 22.0477 42.056 22.8584 42.504C23.6904 42.9307 24.3517 43.5067 24.8424 44.232C25.3544 44.9573 25.6104 45.9067 25.6104 47.08C25.6104 48.168 25.3117 49.1813 24.7144 50.12C24.117 51.0373 23.1997 51.784 21.9624 52.36C20.7464 52.9147 19.1784 53.192 17.2584 53.192ZM50.3539 30.6H52.6899V53H50.3539V30.6ZM36.3379 53H33.9699V30.6H36.3379V53ZM50.5779 42.664H36.0819V40.584H50.5779V42.664ZM72.9931 53.192C71.3078 53.192 69.7398 52.9147 68.2891 52.36C66.8598 51.784 65.6118 50.984 64.5451 49.96C63.4998 48.9147 62.6785 47.7093 62.0811 46.344C61.5051 44.9573 61.2171 43.4427 61.2171 41.8C61.2171 40.1573 61.5051 38.6533 62.0811 37.288C62.6785 35.9013 63.4998 34.696 64.5451 33.672C65.6118 32.6267 66.8598 31.8267 68.2891 31.272C69.7185 30.696 71.2865 30.408 72.9931 30.408C74.6785 30.408 76.2358 30.696 77.6651 31.272C79.0945 31.8267 80.3318 32.616 81.3771 33.64C82.4438 34.664 83.2651 35.8693 83.8411 37.256C84.4385 38.6427 84.7371 40.1573 84.7371 41.8C84.7371 43.4427 84.4385 44.9573 83.8411 46.344C83.2651 47.7307 82.4438 48.936 81.3771 49.96C80.3318 50.984 79.0945 51.784 77.6651 52.36C76.2358 52.9147 74.6785 53.192 72.9931 53.192ZM72.9931 51.08C74.3371 51.08 75.5745 50.856 76.7051 50.408C77.8571 49.9387 78.8491 49.288 79.6811 48.456C80.5345 47.6027 81.1958 46.6213 81.6651 45.512C82.1345 44.3813 82.3691 43.144 82.3691 41.8C82.3691 40.456 82.1345 39.2293 81.6651 38.12C81.1958 36.9893 80.5345 36.008 79.6811 35.176C78.8491 34.3227 77.8571 33.672 76.7051 33.224C75.5745 32.7547 74.3371 32.52 72.9931 32.52C71.6491 32.52 70.4011 32.7547 69.2491 33.224C68.0971 33.672 67.0945 34.3227 66.2411 35.176C65.4091 36.008 64.7478 36.9893 64.2571 38.12C63.7878 39.2293 63.5531 40.456 63.5531 41.8C63.5531 43.1227 63.7878 44.3493 64.2571 45.48C64.7478 46.6107 65.4091 47.6027 66.2411 48.456C67.0945 49.288 68.0971 49.9387 69.2491 50.408C70.4011 50.856 71.6491 51.08 72.9931 51.08ZM93.2449 53V30.6H101.629C103.528 30.6 105.16 30.9093 106.525 31.528C107.89 32.1253 108.936 33 109.661 34.152C110.408 35.2827 110.781 36.6587 110.781 38.28C110.781 39.8587 110.408 41.224 109.661 42.376C108.936 43.5067 107.89 44.3813 106.525 45C105.16 45.6187 103.528 45.928 101.629 45.928H94.5569L95.6129 44.808V53H93.2449ZM95.6129 45L94.5569 43.848H101.565C103.805 43.848 105.501 43.368 106.653 42.408C107.826 41.4267 108.413 40.0507 108.413 38.28C108.413 36.488 107.826 35.1013 106.653 34.12C105.501 33.1387 103.805 32.648 101.565 32.648H94.5569L95.6129 31.528V45Z" fill="white"/>
</g>
</g>
<defs>
<filter id="filter0_d_4_232" x="4.35663" y="5.232" width="110.924" height="51.96" filterUnits="userSpaceOnUse" color-interpolation-filters="sRGB">
<feFlood flood-opacity="0" result="BackgroundImageFix"/>
<feColorMatrix in="SourceAlpha" type="matrix" values="0 0 0 0 0 0 0 0 0 0 0 0 0 0 0 0 0 0 127 0" result="hardAlpha"/>
<feOffset/>
<feGaussianBlur stdDeviation="2"/>
<feComposite in2="hardAlpha" operator="out"/>
<feColorMatrix type="matrix" values="0 0 0 0 0 0 0 0 0 0 0 0 0 0 0 0 0 0 0.25 0"/>
<feBlend mode="normal" in2="BackgroundImageFix" result="effect1_dropShadow_4_232"/>
<feBlend mode="normal" in="SourceGraphic" in2="effect1_dropShadow_4_232" result="shape"/>
</filter>
<linearGradient id="paint0_linear_4_232" x1="37.7014" y1="73.9729" x2="87.5219" y2="71.4531" gradientUnits="userSpaceOnUse">
<stop stop-color="#801AB3" stop-opacity="0"/>
<stop offset="1" stop-color="#4C4CFF"/>
</linearGradient>
</defs>
</svg>

<svg xmlns="http://www.w3.org/2000/svg" width="120" height="60" fill="none"><mask id="a" width="120" height="60" x="0" y="0" maskUnits="userSpaceOnUse" style="mask-type:alpha"><rect width="120" height="60" fill="#D9D9D9" rx="4"/></mask><g mask="url(#a)"><mask id="b" width="24" height="23" x="61" y="30" maskUnits="userSpaceOnUse" style="mask-type:alpha"><rect width="23" height="22" x="61.5" y="30.5" fill="#D9D9D9" rx="11"/></mask><g mask="url(#b)"><path fill="url(#c)" d="M60.542 29.583h24.917v23.833H60.542z"/></g><g filter="url(#d)"><path fill="#fff" d="M15.637 29.168c-1.456 0-2.856-.233-4.2-.7-1.326-.485-2.352-1.101-3.08-1.848l.812-1.596c.69.672 1.614 1.241 2.772 1.708 1.176.448 2.408.672 3.696.672 1.232 0 2.23-.15 2.996-.448.784-.317 1.353-.737 1.708-1.26.373-.523.56-1.101.56-1.736 0-.765-.224-1.381-.672-1.848-.43-.467-.999-.83-1.708-1.092-.71-.28-1.494-.523-2.352-.728-.859-.205-1.718-.42-2.576-.644a11.735 11.735 0 0 1-2.38-.952 5.123 5.123 0 0 1-1.736-1.54c-.43-.653-.644-1.503-.644-2.548 0-.97.252-1.857.756-2.66.522-.821 1.316-1.475 2.38-1.96 1.064-.504 2.426-.756 4.088-.756 1.101 0 2.193.159 3.276.476 1.082.299 2.016.719 2.8 1.26l-.7 1.652a9.218 9.218 0 0 0-2.688-1.232 10.056 10.056 0 0 0-2.716-.392c-1.176 0-2.147.159-2.912.476-.766.317-1.335.747-1.708 1.288a3.117 3.117 0 0 0-.532 1.792c0 .765.214 1.381.644 1.848.448.467 1.026.83 1.736 1.092.728.261 1.521.495 2.38.7.858.205 1.708.43 2.548.672.858.243 1.642.56 2.352.952a4.564 4.564 0 0 1 1.736 1.512c.448.635.672 1.465.672 2.492 0 .952-.262 1.839-.784 2.66-.523.803-1.326 1.456-2.408 1.96-1.064.485-2.436.728-4.116.728ZM30.259 29V9.4h7.336c1.662 0 3.09.27 4.284.812 1.195.523 2.11 1.288 2.744 2.296.654.99.98 2.193.98 3.612 0 1.381-.327 2.576-.98 3.584-.634.99-1.55 1.755-2.744 2.296-1.194.541-2.622.812-4.284.812h-6.188l.924-.98V29H30.26Zm2.072-7-.924-1.008h6.132c1.96 0 3.444-.42 4.452-1.26 1.027-.859 1.54-2.063 1.54-3.612 0-1.568-.513-2.781-1.54-3.64-1.008-.859-2.492-1.288-4.452-1.288h-6.132l.924-.98V22Zm16.432 7 8.96-19.6h2.044l8.96 19.6h-2.184l-8.232-18.396h.84L50.919 29h-2.156Zm3.528-5.236.616-1.68h11.396l.616 1.68H52.291Zm30.717 5.404c-1.475 0-2.837-.243-4.088-.728a9.84 9.84 0 0 1-3.248-2.1 9.816 9.816 0 0 1-2.156-3.164c-.504-1.213-.756-2.539-.756-3.976 0-1.437.252-2.763.756-3.976a9.816 9.816 0 0 1 2.156-3.164 9.788 9.788 0 0 1 3.276-2.072c1.25-.504 2.613-.756 4.088-.756 1.419 0 2.753.243 4.004.728a7.914 7.914 0 0 1 3.164 2.128l-1.316 1.316c-.803-.821-1.69-1.41-2.66-1.764a8.662 8.662 0 0 0-3.136-.56c-1.176 0-2.268.205-3.276.616a7.544 7.544 0 0 0-2.632 1.708 8.01 8.01 0 0 0-1.764 2.576c-.41.97-.616 2.044-.616 3.22 0 1.176.205 2.259.616 3.248.43.97 1.017 1.83 1.764 2.576a8.11 8.11 0 0 0 2.632 1.708c1.008.392 2.1.588 3.276.588 1.12 0 2.165-.187 3.136-.56.97-.373 1.857-.97 2.66-1.792l1.316 1.316c-.859.952-1.913 1.67-3.164 2.156-1.25.485-2.595.728-4.032.728Zm16.26-11.004h10.361v1.764h-10.36v-1.764Zm.225 9.044h11.788V29h-13.86V9.4h13.44v1.792H99.493v16.016ZM17.258 53.192a14.53 14.53 0 0 1-4.8-.8c-1.514-.555-2.688-1.259-3.52-2.112l.928-1.824c.79.768 1.846 1.419 3.168 1.952 1.344.512 2.752.768 4.224.768 1.408 0 2.55-.17 3.424-.512.896-.363 1.547-.843 1.952-1.44.427-.597.64-1.259.64-1.984 0-.875-.256-1.579-.768-2.112-.49-.533-1.141-.95-1.952-1.248-.81-.32-1.706-.597-2.688-.832-.981-.235-1.962-.48-2.944-.736a13.404 13.404 0 0 1-2.72-1.088 5.855 5.855 0 0 1-1.984-1.76c-.49-.747-.736-1.717-.736-2.912 0-1.11.288-2.123.864-3.04.598-.939 1.504-1.685 2.72-2.24 1.216-.576 2.774-.864 4.672-.864 1.259 0 2.507.181 3.744.544 1.238.341 2.304.821 3.2 1.44l-.8 1.888c-.96-.64-1.984-1.11-3.072-1.408a11.49 11.49 0 0 0-3.104-.448c-1.344 0-2.453.181-3.328.544-.874.363-1.525.853-1.952 1.472-.405.597-.608 1.28-.608 2.048 0 .875.246 1.579.736 2.112.512.533 1.174.95 1.984 1.248.832.299 1.739.565 2.72.8.982.235 1.952.49 2.912.768.982.277 1.878.64 2.688 1.088.832.427 1.494 1.003 1.984 1.728.512.725.768 1.675.768 2.848a5.558 5.558 0 0 1-.896 3.04c-.597.917-1.514 1.664-2.752 2.24-1.216.555-2.784.832-4.704.832ZM50.354 30.6h2.336V53h-2.336V30.6ZM36.338 53H33.97V30.6h2.368V53Zm14.24-10.336H36.082v-2.08h14.496v2.08Zm22.415 10.528c-1.685 0-3.253-.277-4.704-.832a11.614 11.614 0 0 1-3.744-2.4 11.7 11.7 0 0 1-2.464-3.616c-.576-1.387-.864-2.901-.864-4.544 0-1.643.288-3.147.864-4.512a11.219 11.219 0 0 1 2.464-3.616 10.944 10.944 0 0 1 3.744-2.4c1.43-.576 2.998-.864 4.704-.864 1.686 0 3.243.288 4.672.864a10.842 10.842 0 0 1 3.712 2.368 10.581 10.581 0 0 1 2.464 3.616c.598 1.387.896 2.901.896 4.544 0 1.643-.298 3.157-.896 4.544a10.581 10.581 0 0 1-2.464 3.616c-1.045 1.024-2.282 1.824-3.712 2.4-1.43.555-2.987.832-4.672.832Zm0-2.112c1.344 0 2.582-.224 3.712-.672a8.907 8.907 0 0 0 2.976-1.952 9.188 9.188 0 0 0 1.984-2.944c.47-1.13.704-2.368.704-3.712 0-1.344-.234-2.57-.704-3.68a8.745 8.745 0 0 0-1.984-2.944 8.304 8.304 0 0 0-2.976-1.952c-1.13-.47-2.368-.704-3.712-.704-1.344 0-2.592.235-3.744.704a8.623 8.623 0 0 0-3.008 1.952 9.42 9.42 0 0 0-1.984 2.944c-.47 1.11-.704 2.336-.704 3.68 0 1.323.235 2.55.704 3.68a9.82 9.82 0 0 0 1.984 2.976 9.268 9.268 0 0 0 3.008 1.952c1.152.448 2.4.672 3.744.672ZM93.245 53V30.6h8.384c1.899 0 3.531.31 4.896.928 1.365.597 2.411 1.472 3.136 2.624.747 1.13 1.12 2.507 1.12 4.128 0 1.579-.373 2.944-1.12 4.096-.725 1.13-1.771 2.005-3.136 2.624-1.365.619-2.997.928-4.896.928h-7.072l1.056-1.12V53h-2.368Zm2.368-8-1.056-1.152h7.008c2.24 0 3.936-.48 5.088-1.44 1.173-.981 1.76-2.357 1.76-4.128 0-1.792-.587-3.179-1.76-4.16-1.152-.981-2.848-1.472-5.088-1.472h-7.008l1.056-1.12V45Z"/></g></g><defs><linearGradient id="c" x1="37.701" x2="87.522" y1="73.973" y2="71.453" gradientUnits="userSpaceOnUse"><stop stop-color="#801AB3" stop-opacity="0"/><stop offset="1" stop-color="#4C4CFF"/></linearGradient><filter id="d" width="110.924" height="51.96" x="4.357" y="5.232" color-interpolation-filters="sRGB" filterUnits="userSpaceOnUse"><feFlood flood-opacity="0" result="BackgroundImageFix"/><feColorMatrix in="SourceAlpha" result="hardAlpha" values="0 0 0 0 0 0 0 0 0 0 0 0 0 0 0 0 0 0 127 0"/><feOffset/><feGaussianBlur stdDeviation="2"/><feComposite in2="hardAlpha" operator="out"/><feColorMatrix values="0 0 0 0 0 0 0 0 0 0 0 0 0 0 0 0 0 0 0.25 0"/><feBlend in2="BackgroundImageFix" result="effect1_dropShadow_4_232"/><feBlend in="SourceGraphic" in2="effect1_dropShadow_4_232" result="shape"/></filter></defs></svg>
